svg-my/14373.svg

<?xml version="1.0" encoding="UTF-8" standalone="no"?>
<svg
   width="1100"
   height="1000"
   version="1.1"
   id="svg1"
   sodipodi:docname="14373.svg"
   inkscape:version="1.4.3 (0d15f75, 2025-12-25)"
   xmlns:inkscape="http://www.inkscape.org/namespaces/inkscape"
   xmlns:sodipodi="http://sodipodi.sourceforge.net/DTD/sodipodi-0.dtd"
   xmlns="http://www.w3.org/2000/svg"
   xmlns:svg="http://www.w3.org/2000/svg">
  <defs
     id="defs1" />
  <sodipodi:namedview
     id="namedview1"
     pagecolor="#ffffff"
     bordercolor="#666666"
     borderopacity="1.0"
     inkscape:showpageshadow="2"
     inkscape:pageopacity="0.0"
     inkscape:pagecheckerboard="0"
     inkscape:deskcolor="#d1d1d1"
     inkscape:zoom="1.0677312"
     inkscape:cx="504.34041"
     inkscape:cy="994.16406"
     inkscape:window-width="1680"
     inkscape:window-height="998"
     inkscape:window-x="-8"
     inkscape:window-y="-8"
     inkscape:window-maximized="1"
     inkscape:current-layer="svg1"
     showguides="true">
    <sodipodi:guide
       position="197.35099,209.34507"
       orientation="0,-1"
       id="guide2"
       inkscape:locked="false" />
    <sodipodi:guide
       position="162.9139,40"
       orientation="0,-1"
       id="guide3"
       inkscape:locked="false" />
    <sodipodi:guide
       position="197.78884,134.67255"
       orientation="0,-1"
       id="guide4"
       inkscape:locked="false" />
  </sodipodi:namedview>
  <path
     id="path1"
     style="fill:#000000;stroke:none;stroke-width:1"
     d="m 824.0918,0 c -44.66967,0 -72.63523,13.324911 -83.89649,39.976562 -10.88588,26.276276 -24.21275,39.416016 -39.97851,39.416016 -16.14114,0 -29.27893,7.132219 -39.41407,21.396482 -10.13513,14.26426 -12.38649,29.09008 -6.75585,44.48047 5.63062,15.01501 4.12777,30.21898 -4.50586,45.60938 -8.25826,15.39038 -20.45651,24.39971 -36.59766,27.02734 -15.76576,2.25225 -27.40265,11.4487 -34.91016,27.58984 -7.13213,15.76577 -6.945,30.59158 0.5625,44.48047 7.88288,13.88889 8.82242,29.27998 2.81641,46.17188 -6.38138,16.51651 -16.89356,27.40295 -31.5332,32.6582 -14.63964,5.63063 -24.39942,16.70419 -29.2793,33.2207 -4.87988,16.8919 -2.06325,31.34346 8.44727,43.35547 10.88588,12.38739 14.64009,27.40228 11.26171,45.04492 -3.37838,17.26727 -12.01345,29.84173 -25.90234,37.72461 -13.88889,7.88288 -21.58443,20.45929 -23.08594,37.72657 -1.5015,17.64264 3.75557,31.53088 15.76758,41.66601 12.38739,10.13514 18.39295,24.21245 18.01758,42.23047 -0.37538,18.01802 -7.13335,31.53006 -20.27149,40.53906 -8.36848,5.73839 -14.07129,13.22948 -17.10937,22.47071 h 52.89648 c 2.8203,-9.24123 8.53305,-16.73232 17.14063,-22.47071 13.51351,-9.009 20.64574,-21.39634 21.39648,-37.16211 1.12613,-16.14114 -4.69036,-29.46605 -17.45312,-39.97656 -12.76277,-10.51051 -18.20696,-24.77495 -16.33008,-42.79297 1.5015,-18.01802 9.19705,-30.59247 23.08594,-37.72461 13.88889,-7.5075 21.95869,-18.39394 24.21094,-32.6582 2.62763,-14.26427 -1.12463,-27.58918 -11.25977,-39.97656 -10.51051,-12.01202 -13.13807,-26.83978 -7.88281,-44.48242 4.87988,-17.64265 14.63965,-28.90528 29.27929,-33.78516 14.63964,-4.87988 24.39942,-14.07633 29.2793,-27.58984 4.87988,-13.51352 3.37703,-27.02555 -4.50586,-40.53907 -7.50751,-13.88888 -7.50751,-29.27998 0,-46.17187 7.88289,-16.89189 19.33264,-26.27547 34.34766,-28.15235 15.01501,-1.87687 26.27569,-9.19817 33.7832,-21.96093 7.13213,-12.76276 8.07166,-26.651 2.81641,-41.66602 -5.25526,-15.01501 -2.81678,-29.84278 7.31836,-44.48242 10.51051,-15.01501 23.46117,-22.14724 38.85156,-21.39648 15.39039,0.37537 24.96304,-6.38065 28.7168,-20.269536 3.75375,-13.88889 10.50977,-21.960639 20.26953,-24.212891 9.75976,-1.876877 19.89574,2.29e-4 30.40625,5.630859 h 55.17968 c 14.63964,27.777777 21.95899,55.556208 21.95899,83.333988 -69.44444,0 -104.16602,43.16757 -104.16602,129.5039 0,35.28529 16.14155,113.3635 48.42383,234.23438 32.28228,120.49549 48.42383,216.21616 48.42383,287.16211 0,32.65765 -28.52888,82.01987 -85.58594,148.08593 -10.51051,1.12613 -15.76562,8.07123 -15.76562,20.83399 0,17.26727 10.51023,25.90039 31.53125,25.90039 h 235.3594 c 21.021,0 31.5332,-8.63312 31.5332,-25.90039 0,-12.76276 -5.2571,-19.70786 -15.7676,-20.83399 -58.1832,-66.06606 -87.27344,-115.42828 -87.27344,-148.08593 0,-70.94595 16.32864,-166.66662 48.98634,-287.16211 32.6576,-120.87088 48.9863,-198.94909 48.9863,-234.23438 0,-86.33633 -34.5344,-129.5039 -103.6035,-129.5039 0,-27.77778 7.31933,-55.556212 21.959,-83.333988 h 55.1797 c 27.4024,0 40.9164,-11.824007 40.541,-35.472656 C 1099.6169,11.824008 1086.1028,0 1059.4512,0 Z m 0,25.900391 h 235.3594 c 9.7597,0 14.6406,2.816635 14.6406,8.447265 0,5.630631 -4.8809,8.445313 -14.6406,8.445313 H 824.0918 c -10.51051,0 -15.76563,-2.814682 -15.76563,-8.445313 0,-5.63063 5.25512,-8.447265 15.76563,-8.447265 z m 86.71093,45.044921 h 61.375 c -10.51051,27.02703 -15.76562,54.055008 -15.76562,81.082028 -10.51051,-1.87688 -20.27028,-1.87688 -29.2793,0 0,-27.02702 -5.44419,-54.054998 -16.33008,-81.082028 z m 30.96875,107.544918 c 73.19822,0 109.79692,29.46841 109.79692,88.40235 0,51.42642 -15.7654,136.26066 -47.2969,254.5039 -31.90694,118.24325 -47.85939,213.40059 -47.85939,285.47266 0,39.78979 28.90315,92.71714 86.71089,158.7832 H 839.85742 c 58.18318,-66.06606 87.27539,-118.99341 87.27539,-158.7832 0,-72.07207 -16.14155,-167.22941 -48.42383,-285.47266 C 846.4267,403.15324 830.28516,318.319 830.28516,266.89258 c 0,-58.93394 37.162,-88.40235 111.48632,-88.40235 z"
     sodipodi:nodetypes="scssccccccccccsccssccscscccccssccscsccsccccscscsssscscsccssssssssssscccccsscsccssss" />
  <path
     id="path2"
     style="baseline-shift:baseline;display:inline;overflow:visible;vector-effect:none;fill:#000000;enable-background:accumulate;stop-color:#000000;stop-opacity:1;opacity:1"
     d="M 162.91406 730.6543 L 162.91406 790.6543 L 246.03906 790.6543 C 260.24365 805.22953 273.9082 829.42346 273.9082 865.32812 C 273.9082 901.23257 260.24356 925.42528 246.03906 940 L 162.91406 940 L 162.91406 1000 L 746.83203 1000 L 746.83203 940 L 663.70703 940 C 649.50254 925.42528 635.83789 901.23257 635.83789 865.32812 C 635.83789 829.42346 649.50244 805.22953 663.70703 790.6543 L 746.83203 790.6543 L 746.83203 730.6543 L 162.91406 730.6543 z M 289.53125 790.6543 L 620.21484 790.6543 C 608.82753 810.05081 600.83789 834.94267 600.83789 865.32812 C 600.83789 895.71256 608.82814 920.60377 620.21484 940 L 289.53125 940 C 300.91796 920.60377 308.9082 895.71256 308.9082 865.32812 C 308.9082 834.94267 300.91857 810.0508 289.53125 790.6543 z " />
</svg>

<?xml version="1.0" encoding="UTF-8" standalone="no"?>
<svg
   width="1100"
   height="1000"
   version="1.1"
   id="svg1"
   sodipodi:docname="14373.svg"
   inkscape:version="1.4.3 (0d15f75, 2025-12-25)"
   xmlns:inkscape="http://www.inkscape.org/namespaces/inkscape"
   xmlns:sodipodi="http://sodipodi.sourceforge.net/DTD/sodipodi-0.dtd"
   xmlns="http://www.w3.org/2000/svg"
   xmlns:svg="http://www.w3.org/2000/svg">
  <defs
     id="defs1" />
  <sodipodi:namedview
     id="namedview1"
     pagecolor="#ffffff"
     bordercolor="#666666"
     borderopacity="1.0"
     inkscape:showpageshadow="2"
     inkscape:pageopacity="0.0"
     inkscape:pagecheckerboard="0"
     inkscape:deskcolor="#d1d1d1"
     inkscape:zoom="0.37749999"
     inkscape:cx="46.357618"
     inkscape:cy="891.39076"
     inkscape:window-width="1680"
     inkscape:window-height="998"
     inkscape:window-x="-8"
     inkscape:window-y="-8"
     inkscape:window-maximized="1"
     inkscape:current-layer="svg1"
     showguides="true">
    <sodipodi:guide
       position="197.35099,209.34507"
       orientation="0,-1"
       id="guide2"
       inkscape:locked="false" />
    <sodipodi:guide
       position="162.9139,40"
       orientation="0,-1"
       id="guide3"
       inkscape:locked="false" />
    <sodipodi:guide
       position="197.78884,134.67255"
       orientation="0,-1"
       id="guide4"
       inkscape:locked="false" />
  </sodipodi:namedview>
  <path
     id="path1"
     style="fill:#000000;stroke:none;stroke-width:1"
     d="M 824.0918 0 C 779.42213 -4.7369516e-15 751.45657 13.324911 740.19531 39.976562 C 729.30943 66.252838 715.98256 79.392578 700.2168 79.392578 C 684.07566 79.392578 670.93787 86.524797 660.80273 100.78906 C 650.6676 115.05332 648.41624 129.87914 654.04688 145.26953 C 659.6775 160.28454 658.17465 175.48851 649.54102 190.87891 C 641.28276 206.26929 629.08451 215.27862 612.94336 217.90625 C 597.1776 220.1585 585.54071 229.35495 578.0332 245.49609 C 570.90107 261.26186 571.0882 276.08767 578.5957 289.97656 C 586.47858 303.86545 587.41812 319.25654 581.41211 336.14844 C 575.03073 352.66495 564.51855 363.55139 549.87891 368.80664 C 535.23927 374.43727 525.47949 385.51083 520.59961 402.02734 C 515.71973 418.91924 518.53636 433.3708 529.04688 445.38281 C 539.93276 457.7702 543.68697 472.78509 540.30859 490.42773 C 536.93021 507.695 528.29514 520.26946 514.40625 528.15234 C 500.51736 536.03522 492.82182 548.61163 491.32031 565.87891 C 489.81881 583.52155 495.07588 597.40979 507.08789 607.54492 C 519.47528 617.68006 525.48084 631.75737 525.10547 649.77539 C 524.73009 667.79341 517.97212 681.30545 504.83398 690.31445 C 496.4655 696.05284 490.76269 703.54393 487.72461 712.78516 L 540.62109 712.78516 C 543.44139 703.54393 549.15414 696.05284 557.76172 690.31445 C 571.27523 681.30545 578.40746 668.91811 579.1582 653.15234 C 580.28433 637.0112 574.46784 623.68629 561.70508 613.17578 C 548.94231 602.66527 543.49812 588.40083 545.375 570.38281 C 546.8765 552.36479 554.57205 539.79034 568.46094 532.6582 C 582.34983 525.1507 590.41963 514.26426 592.67188 500 C 595.29951 485.73573 591.54725 472.41082 581.41211 460.02344 C 570.9016 448.01142 568.27404 433.18366 573.5293 415.54102 C 578.40918 397.89837 588.16895 386.63574 602.80859 381.75586 C 617.44823 376.87598 627.20801 367.67953 632.08789 354.16602 C 636.96777 340.6525 635.46492 327.14047 627.58203 313.62695 C 620.07452 299.73807 620.07452 284.34697 627.58203 267.45508 C 635.46492 250.56319 646.91467 241.17961 661.92969 239.30273 C 676.9447 237.42586 688.20538 230.10456 695.71289 217.3418 C 702.84502 204.57904 703.78455 190.6908 698.5293 175.67578 C 693.27404 160.66077 695.71252 145.833 705.84766 131.19336 C 716.35817 116.17835 729.30883 109.04612 744.69922 109.79688 C 760.08961 110.17225 769.66226 103.41623 773.41602 89.527344 C 777.16977 75.638454 783.92579 67.566705 793.68555 65.314453 C 803.44531 63.437576 813.58129 65.314682 824.0918 70.945312 L 879.27148 70.945312 C 893.91112 98.723089 901.23047 126.50152 901.23047 154.2793 C 831.78603 154.2793 797.06445 197.44687 797.06445 283.7832 C 797.06445 319.06849 813.206 397.1467 845.48828 518.01758 C 877.77056 638.51307 893.91211 734.23374 893.91211 805.17969 C 893.91211 837.83734 865.38323 887.19956 808.32617 953.26562 C 797.81566 954.39175 792.56055 961.33685 792.56055 974.09961 C 792.56055 991.36688 803.07078 1000 824.0918 1000 L 1059.4512 1000 C 1080.4722 1000 1090.9844 991.36688 1090.9844 974.09961 C 1090.9844 961.33685 1085.7273 954.39175 1075.2168 953.26562 C 1017.0336 887.19956 987.94336 837.83734 987.94336 805.17969 C 987.94336 734.23374 1004.272 638.51307 1036.9297 518.01758 C 1069.5873 397.1467 1085.916 319.06849 1085.916 283.7832 C 1085.916 197.44687 1051.3816 154.2793 982.3125 154.2793 C 982.3125 126.50152 989.63183 98.723088 1004.2715 70.945312 L 1059.4512 70.945312 C 1086.8536 70.945312 1100.3676 59.121305 1099.9922 35.472656 C 1099.6169 11.824008 1086.1028 0 1059.4512 0 L 824.0918 0 z M 824.0918 25.900391 L 1059.4512 25.900391 C 1069.2109 25.900391 1074.0918 28.717026 1074.0918 34.347656 C 1074.0918 39.978287 1069.2109 42.792969 1059.4512 42.792969 L 824.0918 42.792969 C 813.58129 42.792969 808.32617 39.978287 808.32617 34.347656 C 808.32617 28.717026 813.58129 25.900391 824.0918 25.900391 z M 910.80273 70.945312 L 972.17773 70.945312 C 961.66722 97.972342 956.41211 125.00032 956.41211 152.02734 C 945.9016 150.15046 936.14183 150.15046 927.13281 152.02734 C 927.13281 125.00032 921.68862 97.972342 910.80273 70.945312 z M 941.77148 178.49023 C 1014.9697 178.49023 1051.5684 207.95864 1051.5684 266.89258 C 1051.5684 318.319 1035.803 403.15324 1004.2715 521.39648 C 972.36456 639.63973 956.41211 734.79707 956.41211 806.86914 C 956.41211 846.65893 985.31526 899.58628 1043.123 965.65234 L 839.85742 965.65234 C 898.0406 899.58628 927.13281 846.65893 927.13281 806.86914 C 927.13281 734.79707 910.99126 639.63973 878.70898 521.39648 C 846.4267 403.15324 830.28516 318.319 830.28516 266.89258 C 830.28516 207.95864 867.44716 178.49023 941.77148 178.49023 z M 537.43359 962.97656 C 538.16825 965.61949 538.75036 968.38747 539.18164 971.2832 C 541.43389 988.92584 532.80077 998.4985 513.28125 1000 L 565.64648 1000 C 586.29213 991.74175 595.29951 979.73061 592.67188 963.96484 C 592.62458 963.6338 592.57586 963.3043 592.52344 962.97656 L 537.43359 962.97656 z " />
  <path
     id="path2"
     style="baseline-shift:baseline;display:inline;overflow:visible;vector-effect:none;fill:#000000;enable-background:accumulate;stop-color:#000000;stop-opacity:1;opacity:1"
     d="M 162.91406 730.6543 L 162.91406 790.6543 L 246.03906 790.6543 C 260.24365 805.22953 273.9082 829.42346 273.9082 865.32812 C 273.9082 901.23257 260.24356 925.42528 246.03906 940 L 162.91406 940 L 162.91406 1000 L 746.83203 1000 L 746.83203 940 L 663.70703 940 C 649.50254 925.42528 635.83789 901.23257 635.83789 865.32812 C 635.83789 829.42346 649.50244 805.22953 663.70703 790.6543 L 746.83203 790.6543 L 746.83203 730.6543 L 162.91406 730.6543 z M 289.53125 790.6543 L 620.21484 790.6543 C 608.82753 810.05081 600.83789 834.94267 600.83789 865.32812 C 600.83789 895.71256 608.82814 920.60377 620.21484 940 L 289.53125 940 C 300.91796 920.60377 308.9082 895.71256 308.9082 865.32812 C 308.9082 834.94267 300.91857 810.0508 289.53125 790.6543 z " />
</svg>
